X: 34
T:Louisiana Saturday Night
O:U.S.A
F: http://www.youtube.com/watch?v=nwx773iJ2M4
F: http://www.youtube.com/watch?v=Ap_twYQ-on8
M:4/4
L:1/4
Q: 1/4=300
K:Bb
%%MIDI drum dzdz 35 35 90 50 
%%MIDI drumon
%%MIDI program 24
z6ce\
|e e2 d|e2 G2|B B2 A|B3 E|\
c c2 B|c2 G2|B2 B2|E4|
G B2 B|B2 G2|c2 c2|B4|\
cccc|BBBB|BE3-|E2z2|
GBBG|B2 B2|BBBB|BB3|\
c2c2|c2BG|B2B2|BE3|
G B2 B|B2 B2|B2 B2|B4|\
cccc|BBBB|BE3-|E2z2|



